dist/img/statistics/icon-3.svg

<svg width="18" height="19" viewBox="0 0 18 19" fill="none" xmlns="http://www.w3.org/2000/svg">
<g clip-path="url(#clip0_168_5601)">
<path d="M15.5594 10.595L8.32324 18.9179C12.8266 18.9179 16.4947 15.3412 16.6416 10.8735C16.6466 10.7209 16.5227 10.595 16.37 10.595H15.5594Z" fill="#0761E1"/>
<path d="M8.04412 2.27664C4.69607 2.3868 1.84881 4.47458 0.631836 7.40929V10.595H8.32277V2.54833C8.32277 2.39557 8.19681 2.2716 8.04412 2.27664Z" fill="url(#paint0_linear_168_5601)"/>
<path d="M0.632 7.40933C0.225072 8.3907 0 9.4665 0 10.5951C0 12.8934 0.931589 14.9741 2.43772 16.4803H8.32294V10.5951L0.632 7.40933Z" fill="#3B88F5"/>
<path d="M8.32271 10.595L2.4375 16.4802C3.94367 17.9864 6.02439 18.9179 8.32271 18.9179C12.3191 18.9179 15.5589 15.1916 15.5589 10.595H8.32271V10.595Z" fill="#3B88F5"/>
<path d="M9.82466 0.918121C9.81596 0.917831 9.80734 0.918084 9.79883 0.918628L16.9135 9.37241H17.7286C17.8814 9.37241 18.0053 9.24649 18.0003 9.09383C17.8563 4.64361 14.2748 1.06212 9.82466 0.918121Z" fill="url(#paint1_linear_168_5601)"/>
<path d="M9.79868 0.918587C9.79535 0.918443 9.79202 0.918189 9.78869 0.91808C9.65566 0.913154 9.5459 1.03705 9.5459 1.18978C9.5459 1.04574 9.65791 0.927463 9.79868 0.918587Z" fill="url(#paint2_linear_168_5601)"/>
<path d="M9.79868 0.91861C9.65791 0.927485 9.5459 1.04576 9.5459 1.1898V9.1007C9.5459 9.25075 9.66755 9.37239 9.81759 9.37239H16.9134V9.09381C16.788 4.64743 13.6722 1.0684 9.79868 0.91861Z" fill="url(#paint3_linear_168_5601)"/>
</g>
<defs>
<linearGradient id="paint0_linear_168_5601" x1="13.6127" y1="10.4138" x2="7.68894" y2="-17.0229" gradientUnits="userSpaceOnUse">
<stop offset="0.104232" stop-color="#93CAF7"/>
<stop offset="0.554846" stop-color="#6773FF"/>
<stop offset="0.9999" stop-color="#7628DA"/>
</linearGradient>
<linearGradient id="paint1_linear_168_5601" x1="23.6417" y1="9.18829" x2="17.8802" y2="-18.8111" gradientUnits="userSpaceOnUse">
<stop offset="0.104232" stop-color="#93CAF7"/>
<stop offset="0.554846" stop-color="#6773FF"/>
<stop offset="0.9999" stop-color="#7628DA"/>
</linearGradient>
<linearGradient id="paint2_linear_168_5601" x1="9.97255" y1="1.18386" x2="9.77999" y2="0.286799" gradientUnits="userSpaceOnUse">
<stop offset="0.104232" stop-color="#93CAF7"/>
<stop offset="0.554846" stop-color="#6773FF"/>
<stop offset="0.9999" stop-color="#7628DA"/>
</linearGradient>
<linearGradient id="paint3_linear_168_5601" x1="21.9809" y1="9.18828" x2="15.6298" y2="-18.5398" gradientUnits="userSpaceOnUse">
<stop offset="0.104232" stop-color="#DDF0FF"/>
<stop offset="0.848293" stop-color="#6773FF"/>
<stop offset="0.9999" stop-color="#7628DA"/>
</linearGradient>
<clipPath id="clip0_168_5601">
<rect width="18" height="18" fill="white" transform="translate(0 0.917969)"/>
</clipPath>
</defs>
</svg>

<svg width="18" height="19" viewBox="0 0 18 19" fill="none" xmlns="http://www.w3.org/2000/svg"><g clip-path="url(#clip0_168_5601)"><path d="M15.56 10.595l-7.237 8.323a8.323 8.323 0 008.319-8.044.271.271 0 00-.272-.279h-.81z" fill="#0761E1"/><path d="M8.044 2.277A8.326 8.326 0 00.632 7.409v3.186h7.69V2.548a.271.271 0 00-.278-.271z" fill="url(#paint0_linear_168_5601)"/><path d="M.632 7.41A8.298 8.298 0 000 10.594c0 2.298.932 4.38 2.438 5.885h5.885v-5.885L.632 7.41z" fill="#3B88F5"/><path d="M8.323 10.595L2.437 16.48a8.297 8.297 0 005.886 2.438c3.996 0 7.236-3.726 7.236-8.323H8.323z" fill="#3B88F5"/><path d="M9.825.918h-.026l7.114 8.454h.816A.271.271 0 0018 9.094 8.46 8.46 0 009.825.918z" fill="url(#paint1_linear_168_5601)"/><path d="M9.799.919h-.01c-.133-.006-.243.118-.243.27a.27.27 0 01.253-.27z" fill="url(#paint2_linear_168_5601)"/><path d="M9.799.919a.271.271 0 00-.253.27v7.912c0 .15.122.271.272.271h7.095v-.278C16.788 4.647 13.673 1.068 9.8.919z" fill="url(#paint3_linear_168_5601)"/></g><defs><linearGradient id="paint0_linear_168_5601" x1="13.613" y1="10.414" x2="7.689" y2="-17.023" gradientUnits="userSpaceOnUse"><stop offset=".104" stop-color="#93CAF7"/><stop offset=".555" stop-color="#6773FF"/><stop offset="1" stop-color="#7628DA"/></linearGradient><linearGradient id="paint1_linear_168_5601" x1="23.642" y1="9.188" x2="17.88" y2="-18.811" gradientUnits="userSpaceOnUse"><stop offset=".104" stop-color="#93CAF7"/><stop offset=".555" stop-color="#6773FF"/><stop offset="1" stop-color="#7628DA"/></linearGradient><linearGradient id="paint2_linear_168_5601" x1="9.973" y1="1.184" x2="9.78" y2=".287" gradientUnits="userSpaceOnUse"><stop offset=".104" stop-color="#93CAF7"/><stop offset=".555" stop-color="#6773FF"/><stop offset="1" stop-color="#7628DA"/></linearGradient><linearGradient id="paint3_linear_168_5601" x1="21.981" y1="9.188" x2="15.63" y2="-18.54" gradientUnits="userSpaceOnUse"><stop offset=".104" stop-color="#DDF0FF"/><stop offset=".848" stop-color="#6773FF"/><stop offset="1" stop-color="#7628DA"/></linearGradient><clipPath id="clip0_168_5601"><path fill="#fff" transform="translate(0 .918)" d="M0 0h18v18H0z"/></clipPath></defs></svg>
